module-11/build/images/about/facebook.svg

<svg xmlns="http://www.w3.org/2000/svg" width="9" height="16"><path fill-rule="evenodd" fill="#FFF" d="M8.097.003L6.079-.001c-2.267 0-3.732 1.546-3.732 3.938v1.815H.317A.323.323 0 000 6.079v2.63c0 .181.142.326.317.326h2.03v6.638c0 .181.141.327.317.327h2.647a.323.323 0 00.318-.327V9.035h2.372a.32.32 0 00.317-.326l.001-2.63a.328.328 0 00-.093-.231.313.313 0 00-.224-.096H5.629V4.213c0-.739.171-1.115 1.108-1.115h1.36a.322.322 0 00.317-.326V.329a.322.322 0 00-.317-.326z"/></svg>

<svg 
 xmlns="http://www.w3.org/2000/svg"
 xmlns:xlink="http://www.w3.org/1999/xlink"
 width="9px" height="16px">
<path fill-rule="evenodd"  fill="rgb(255, 255, 255)"
 d="M8.097,0.003 L6.079,-0.001 C3.812,-0.001 2.347,1.545 2.347,3.937 L2.347,5.752 L0.317,5.752 C0.142,5.752 -0.000,5.899 -0.000,6.079 L-0.000,8.709 C-0.000,8.890 0.142,9.035 0.317,9.035 L2.347,9.035 L2.347,15.673 C2.347,15.854 2.488,16.000 2.664,16.000 L5.311,16.000 C5.487,16.000 5.629,15.853 5.629,15.673 L5.629,9.035 L8.001,9.035 C8.177,9.035 8.318,8.890 8.318,8.709 L8.319,6.079 C8.319,5.992 8.286,5.909 8.226,5.848 C8.167,5.787 8.086,5.752 8.002,5.752 L5.629,5.752 L5.629,4.213 C5.629,3.474 5.800,3.098 6.737,3.098 L8.097,3.098 C8.272,3.098 8.414,2.952 8.414,2.772 L8.414,0.329 C8.414,0.149 8.272,0.003 8.097,0.003 Z"/>
</svg>
